X: 1
T: KELTON'S -- REEL
T: Or "Pig Town Fling"
B: Ryan's Mammoth Collection of Fiddle Tunes
R: REEL
M: 2/4
L: 1/16
Z: Contributed 20000424210921 by Ivan Bradley bradleyi:peoplepc.com
K: G
v.G2ge .d2"4"ed | .B3ge dBAB | .G2ge .d2"4"ed |1 BG"4"AG EFGA :|2 BG"4"AF G2 z2|]
|: v.B2.e2 efge |  fedf edBA | .B2.e2 efge    | fgaf g2 z2 :|
